X:423
T:The London Gentlewoman
M:6/8
L:1/8
S:Colin Hume's website,  colinhume.com  - chords can also be printed below the stave.
Q:3/8=120
C:John Playford, 1651 / Charles Bolton
%%MIDI ratio 3 1
K:G
P:A
|: "G"B>cd "D"d2c | "G"B>cd "D"D>EF | "G"G2G "C"G2A | "G"B3 "C"c3 :|\
P:B
|: "G"d>cB "Am"c>BA | "G"B>AG "Am"A>Bc | "G"d2d "D"d2c | "G"B3 "D"A3 :|
P:C
|: "G"B>AB "Em"G>AB | "Am"A>GA "D"D>EF | "G"G2G "C"G2A | "G"B3 "C"c3 :|\
P:D
|: "G"d>ef "C"g2g | "D"f>gf "C"e3 | "G"d>ed "C"c>dc | "G"B3 "D"A3 :|

